X: 1
T: Bonnie Anne
M: 4/4
L: 1/8
R: reel
K: Gmaj
DG~G2 FGAc|BGAG F2FE|DG~G2 FGAc|1 BGAF G3E:|2 BGAF G3z||
d2d2 ^c3c|dedc BABc|d2gd cA~A2|1 BGAF GAB^c:|2 BGAF G3E||
